X:39
T:November Wind
C:Jane Rothfield
Z:robin.beech@mcgill.ca
N:Reproduced with permission
R:waltz
M:3/4
L:1/8
K:D
dcB AFA | GAE- E2D | B,CD- D (3DCB, | C2 A,3 c |
dcB AFA | GAE- E2D | B,CD- D (3DCB, | A,3- A,2F ||
G2 G/F/E | F2 D3 F | G3 FED | E3- E2F |
G4 G/F/E | F D3 F | GFE DCD | A,3- A,3 |]
